_site/assets/img/smalltabs-logo__footer.svg

<?xml version="1.0" encoding="utf-8"?>
<!-- Generator: Adobe Illustrator 16.0.0, SVG Export Plug-In . SVG Version: 6.00 Build 0)  -->
<!DOCTYPE svg PUBLIC "-//W3C//DTD SVG 1.1//EN" "http://www.w3.org/Graphics/SVG/1.1/DTD/svg11.dtd">
<svg version="1.1" id="Layer_1" xmlns:sketch="http://www.bohemiancoding.com/sketch/ns"
	 xmlns="http://www.w3.org/2000/svg" xmlns:xlink="http://www.w3.org/1999/xlink" x="0px" y="0px" width="41px" height="36px"
	 viewBox="0 0 41 36" enable-background="new 0 0 41 36" xml:space="preserve">
<title>colors</title>
<description>Created with Sketch (http://www.bohemiancoding.com/sketch)</description>
<g id="Page-1" sketch:type="MSPage">
	<path id="FOOTER-LOGO" sketch:type="MSShapeGroup" fill="#FFAC00" d="M7.17,7.821c0-1.195,0.896-1.963,1.793-1.963
		c0.896,0,1.579,0.768,1.579,1.963v3.457h6.444V6.712c0-3.457-3.499-6.7-8.023-6.7c-5.506,0-8.578,3.67-8.578,8.322
		c0,3.884,2.091,7.468,5.164,10.541c2.987,2.945,4.822,5.249,4.822,8.066c0,1.492-0.597,2.219-1.877,2.219
		c-1.324,0-2.092-0.938-2.092-2.219V23.74H0v4.566c0,3.457,3.585,6.7,8.792,6.7c5.25,0,8.365-3.969,8.365-8.321
		c0-4.865-3.115-8.237-5.847-11.438C7.896,11.235,7.17,10.382,7.17,7.821L7.17,7.821z M39.667,0H20.688c0,0-1.06,7.648-0.397,12.95
		c0.662,5.302,2.717,7.687,1.789,16.964c-0.331,3.779-0.464,4.805,3.579,5.104h3.247h2.544h3.247
		c4.043-0.299,3.91-1.324,3.578-5.104c-0.926-9.277,1.127-11.662,1.791-16.964C40.729,7.648,39.667,0,39.667,0L39.667,0z
		 M36.221,8.99h-3.369v21.476h-5.185V8.99h-3.53V4.552h12.084V8.99L36.221,8.99z"/>
</g>
</svg>

<?xml version="1.0" encoding="UTF-8" standalone="no"?>
<svg width="41px" height="36px" viewBox="0 0 41 36" version="1.1" xmlns="http://www.w3.org/2000/svg" xmlns:xlink="http://www.w3.org/1999/xlink" xmlns:sketch="http://www.bohemiancoding.com/sketch/ns">
    <title>colors</title>
    <description>Created with Sketch (http://www.bohemiancoding.com/sketch)</description>
    <defs></defs>
    <g id="Page-1" stroke="none" stroke-width="1" fill="none" fill-rule="evenodd" sketch:type="MSPage">
        <path d="M7.17,7.821 C7.17,6.626 8.066,5.858 8.963,5.858 C9.859,5.858 10.542,6.626 10.542,7.821 L10.542,11.278 L16.986,11.278 L16.986,6.712 C16.986,3.255 13.487,0.012 8.963,0.012 C3.457,0.012 0.385,3.682 0.385,8.334 C0.385,12.218 2.476,15.802 5.549,18.875 C8.536,21.82 10.371,24.124 10.371,26.941 C10.371,28.434 9.774,29.16 8.494,29.16 C7.17,29.16 6.402,28.222 6.402,26.941 L6.402,23.74 L0,23.74 L0,28.307 C0,31.764 3.585,35.007 8.792,35.007 C14.042,35.007 17.157,31.038 17.157,26.685 C17.157,21.82 14.042,18.448 11.31,15.247 C7.896,11.235 7.17,10.382 7.17,7.821 L7.17,7.821 Z M39.667,0 L20.688,0 C20.688,0 19.628,7.648 20.291,12.95 C20.953,18.252 23.008,20.637 22.08,29.914 C21.749,33.693 21.616,34.719 25.659,35.018 L28.906,35.018 L31.45,35.018 L34.697,35.018 C38.74,34.719 38.608,33.693 38.276,29.914 C37.349,20.637 39.403,18.252 40.066,12.95 C40.729,7.648 39.667,0 39.667,0 L39.667,0 Z M36.22,8.99 L32.851,8.99 L32.851,30.466 L27.667,30.466 L27.667,8.99 L24.137,8.99 L24.137,4.552 L36.22,4.552 L36.22,8.99 L36.22,8.99 Z" id="FOOTER-LOGO" fill="#E24000" sketch:type="MSShapeGroup"></path>
    </g>
</svg>
